X: 12253
T: Fairhaired Boy, The
R: jig
M: 6/8
K: Adorian
EAA AGA|Bdd dBd|ege dBG|BAB GED|
E2 A AGA|Bdd dBd|ege dBG|BAG A-:|
e2 a aga|e2 g ged|ege dBG|BAB GED|
e2 a aga|e2 g ged|ege dBG|BAB A:|
E2 A AGA|Bdd dBd|ege dBG|BAG A-||

